X:5
T:Gavotte 5
C:Michael Praetorius
M:C|
L:1/4
K:G
g |: g f e d | c2 A g/f/ | e d d ^c |1 d3 g :|2 d3 _B/c/ |
|: d c d e | =f>e d d | c A B/A/ B/c/ |
d g f/g/ a/f/ |1 g3 _B/c/ :|2 g3 ||
